X:17
T: Was batt mich ein schnes Haus (Band 1), S. 55
N: P0791
O: Lothringen
S: PINCK, Louis: Verklingende Weisen, Bd 1, Metz 1928]
R: ???]
M: 4/4
L: 1/8
K: G
 | _B2zBA2G2 | A2GFG2z2 |
d3_ed2c2 | dcc2_B2z2 |
Bcd3cB2 | d2GAG2_E2 | =F2
_B2B2c2 | _B2A2G2z2

